build/images/g10.svg

<svg width="138" height="138" viewBox="0 0 138 138" fill="none" xmlns="http://www.w3.org/2000/svg">
<circle cx="69" cy="69" r="69" fill="#76BD5E"/>
<path d="M55.1999 49.7333V47.2667C55.1999 43.3415 56.7592 39.577 59.5348 36.8015C62.3103 34.026 66.0747 32.4667 69.9999 32.4667C73.9252 32.4667 77.6896 34.026 80.4651 36.8015C83.2407 39.577 84.7999 43.3415 84.7999 47.2667V49.7333H55.1999ZM57.6666 76.8667H82.3333H57.6666ZM44.8449 61.524L41.0067 96.0574C40.9304 96.7468 41.0004 97.4446 41.212 98.1052C41.4237 98.7658 41.7723 99.3743 42.235 99.8911C42.6978 100.408 43.2643 100.821 43.8976 101.104C44.5309 101.387 45.2168 101.533 45.9105 101.533H94.0894C94.7831 101.533 95.469 101.387 96.1023 101.104C96.7356 100.821 97.3021 100.408 97.7649 99.8911C98.2276 99.3743 98.5762 98.7658 98.7879 98.1052C98.9995 97.4446 99.0695 96.7468 98.9931 96.0574L95.155 61.524C95.0214 60.3169 94.4472 59.2015 93.5424 58.3913C92.6376 57.5812 91.4658 57.1333 90.2513 57.1333H49.7486C48.5341 57.1333 47.3623 57.5812 46.4575 58.3913C45.5526 59.2015 44.9785 60.3169 44.8449 61.524V61.524Z" stroke="white" stroke-width="4.26667"/>
</svg>

<svg width="138" height="138" fill="none" xmlns="http://www.w3.org/2000/svg"><circle cx="69" cy="69" r="69" fill="#76BD5E"/><path d="M55.2 49.733v-2.466a14.8 14.8 0 1129.6 0v2.466H55.2zm2.467 27.134h24.666-24.666zM44.845 61.524l-3.838 34.533a4.934 4.934 0 004.904 5.476h48.178a4.934 4.934 0 004.904-5.476l-3.838-34.533a4.934 4.934 0 00-4.904-4.39H49.75a4.934 4.934 0 00-4.904 4.39v0z" stroke="#fff" stroke-width="4.267"/></svg>
